meshus/SEA_binx.svg

<svg width="400px" height="400px"><g id="delaunay"><path d="M170.30984036910394,134.89968031427682L138.5826511013385,24.36290058398555L204.75642088659652,0.004900932343218756Z"></path><path d="M241.02649496486168,143.22131986817934L170.30984036910394,134.89968031427682L204.75642088659652,0.004900932343218756Z"></path><path d="M233.50701811196592,202.16719388455763L170.30984036910394,134.89968031427682L241.02649496486168,143.22131986817934Z"></path><path d="M233.50701811196592,202.16719388455763L241.02649496486168,143.22131986817934L263.0979742492884,182.12860298372175Z"></path><path d="M240.79161206434185,399.99221460723993L195.8416695564274,360.8498223144852L233.50701811196592,202.16719388455763Z"></path><path d="M240.79161206434185,399.99221460723993L233.50701811196592,202.16719388455763L263.0979742492884,182.12860298372175Z"></path><path d="M195.8416695564274,360.8498223144852L136.89603235789406,256.8900672327132L233.50701811196592,202.16719388455763Z"></path><path d="M136.89603235789406,256.8900672327132L138.5826511013385,24.36290058398555L170.30984036910394,134.89968031427682Z"></path><path d="M136.89603235789406,256.8900672327132L170.30984036910394,134.89968031427682L233.50701811196592,202.16719388455763Z"></path><path d="M263.0979742492884,182.12860298372175L241.02649496486168,143.22131986817934L204.75642088659652,0.004900932343218756Z"></path></g></svg>

<?xml version="1.0" encoding="utf-8"?>
<!-- Generator: Adobe Illustrator 15.0.0, SVG Export Plug-In . SVG Version: 6.00 Build 0)  -->
<!DOCTYPE svg PUBLIC "-//W3C//DTD SVG 1.1//EN" "http://www.w3.org/Graphics/SVG/1.1/DTD/svg11.dtd">
<svg version="1.1" id="Layer_1" xmlns="http://www.w3.org/2000/svg" xmlns:xlink="http://www.w3.org/1999/xlink" x="0px" y="0px"
	 width="400px" height="400px" viewBox="0 0 400 400" enable-background="new 0 0 400 400" xml:space="preserve">
<g id="delaunay">
	<path fill="none" stroke="#000000" stroke-miterlimit="10" d="M170.31,134.899L138.583,24.363l66.173-24.358L170.31,134.899z"/>
	<path fill="none" stroke="#000000" stroke-miterlimit="10" d="M241.026,143.221l-70.716-8.322L204.756,0.005L241.026,143.221z"/>
	<path fill="none" stroke="#000000" stroke-miterlimit="10" d="M233.507,202.167l-63.197-67.268l70.716,8.322L233.507,202.167z"/>
	<path fill="none" stroke="#000000" stroke-miterlimit="10" d="M233.507,202.167l7.52-58.946l22.071,38.907L233.507,202.167z"/>
	<path fill="none" stroke="#000000" stroke-miterlimit="10" d="M240.791,399.992l-44.949-39.143l37.665-158.683L240.791,399.992z"/>
	<path fill="none" stroke="#000000" stroke-miterlimit="10" d="M240.791,399.992l-7.284-197.825l29.591-20.039L240.791,399.992z"/>
	<path fill="none" stroke="#000000" stroke-miterlimit="10" d="M195.842,360.85l-58.946-103.959l96.611-54.724L195.842,360.85z"/>
	<path fill="none" stroke="#000000" stroke-miterlimit="10" d="M136.896,256.891l1.687-232.528l31.728,110.537L136.896,256.891z"/>
	<path fill="none" stroke="#000000" stroke-miterlimit="10" d="M136.896,256.891l33.414-121.991l63.197,67.268L136.896,256.891z"/>
	<path fill="none" stroke="#000000" stroke-miterlimit="10" d="M263.098,182.128l-22.071-38.907L204.756,0.005L263.098,182.128z"/>
</g>
</svg>
